X:47
T: Graf und Nonne (Die Nonne)
N: Q0155t
O: Mitteleuropa, Deutschland (BRD) , Westfalen
R: Ballade, Standesunterschied, vergebliche Werbung, Liebe, Klage
M: 3/4
L: 1/8
K: G
D2 | G3GBG | D2D2
GF | E3FGE | D4
DD | A3cBA | G2G2
G2 | B2A2FF | G4
DD | A3cBA | G2G2
G2 | B2A2FF | G4

